assets/images/icon-dribbble.svg

<svg height="20" viewBox="0 0 20 20" width="20" xmlns="http://www.w3.org/2000/svg"><path d="m18.8175881 8.18784005c-.1179659-.57814364-.2952789-1.1475496-.5246571-1.69147064-.2253732-.53409114-.5049961-1.04815841-.8297665-1.52873121-.3222217-.47656804-.6917755-.92437451-1.0988308-1.33104104-.4066911-.40739468-.8548888-.77729011-1.3311216-1.09876419-.480602-.32584292-.9954286-.60435671-1.5288239-.83044437-.543954-.22900022-1.1130303-.40666653-1.6915731-.52389717-.5923783-.12159948-1.2025971-.18349143-1.8120877-.18349143-.61021883 0-1.21970945.06189195-1.81281591.18349143-.57817868.11723064-1.14761914.29526102-1.69120904.52389717-.53339532.22608766-1.04822192.50496552-1.52955203.83044437-.47659691.32147408-.92443052.69100544-1.33112169 1.09876419-.40705527.40666653-.77624493.85483707-1.09810258 1.33104104-.32513448.4805728-.60439332.99464007-.8297665 1.52873121-.23047047.54392104-.40705526 1.113327-.52538528 1.69147064-.12124276.59161425-.18277437 1.20179608-.18277437 1.81161384 0 .61091001.06153161 1.22109181.18277437 1.81307011.11833002.5781437.29527891 1.1475496.52502119 1.6911066.22537317.533363.50499611 1.0488865.8297665 1.5294593.32185765.4765681.69104731.9236464 1.09810258 1.3310411.40669117.4066665.85488887.7758338 1.33112169 1.098036.4813301.3251148.99615671.6043567 1.52955203.8297163.54322581.2304565 1.11303036.4059383 1.69120903.5246253.59310647.1223276 1.20259709.1834914 1.81281591.1834914.6094906 0 1.2197094-.0611638 1.8120877-.1834914.5789069-.118687 1.1476191-.2945329 1.6915731-.5246253.5333953-.2253596 1.0482219-.5049656 1.5288239-.8297163.4765969-.3222022.9244305-.6910054 1.3311217-1.098036.4066911-.4073947.776609-.8548371 1.0988307-1.3310411.3251345-.4805728.6043933-.9960963.8297665-1.5294593.2297423-.5431929.4066912-1.1129629.5246571-1.6911066.1216069-.5923424.182776-1.2025242.182776-1.81307011.0003625-.60981776-.060805-1.21999959-.1824119-1.81161384zm-1.1337836 1.73552315c-.1110482-.02402864-2.7121241-.58396877-5.3532501-.25193665-.0538856-.13142938-.1088636-.26395097-.165662-.39683663-.1598365-.37608463-.3320522-.74889262-.5111857-1.11478328 3.0358022-1.23856718 4.2682548-3.02069133 4.2824544-3.04180741 1.0780775 1.30846868 1.7301669 2.98100767 1.7476434 4.80536397zm-2.6069014-5.69187516c-.0192969.02985376-1.1137585 1.69583948-4.0148465 2.78331749-1.31400933-2.4141502-2.75763556-4.33170851-2.87305284-4.48388989.58109142-.14089521 1.18694112-.21698591 1.81135954-.21698591 1.9464378 0 3.7221162.72522805 5.0765398 1.91755831zm-6.91775491-1.69438321c0 .00072814-.00145637.00145628-.00145637.00145628s-.00837412.00218443-.02257373.00509699c.00764594-.00218442.01638416-.00364071.0240301-.00655327zm-1.43852894.51115471c.10230996.13725451 1.52409065 2.06427864 2.85448415 4.4285512-3.69080431.98044134-6.89372485.94221396-7.09688839.93857325.49953472-2.38065573 2.09899248-4.35464493 4.24240424-5.36712445zm-4.4066099 6.95119435c0-.08191581.00364092-.16201128.00655366-.24283489.13544236.00291256 3.93365392.08919723 7.89097389-1.09512348.2202758.43105924.4310853.86903582.6236902 1.30664833-.1015818.02839748-.2027995.05897935-.3029249.09174575-4.14810429 1.3405068-6.25219408 5.0729556-6.25219408 5.0729556s.00291274.0021844.00291274.0036407c-1.22371444-1.361987-1.96901151-3.1623147-1.96901151-5.13703201zm7.68635395 7.68661641c-1.86014791 0-3.56628474-.6611517-4.89595006-1.7613722.10085359.0819158.17221569.134342.17221569.134342s1.4734818-3.2132846 6.03155417-4.8013592c.0171123-.0065533.0342246-.0112862.051337-.0163832 1.0817184 2.8102587 1.5280956 5.1639732 1.6420566 5.8356829-.9226101.3924678-1.9366073.6090897-3.0012134.6090897zm4.2951976-1.3110172c-.0782798-.4641896-.4878837-2.7199693-1.4960555-5.4901802 2.4809254-.3968367 4.631619.2836107 4.7899992.3356728-.3422469 2.1414615-1.5681459 3.9887543-3.2939437 5.1545074z" fill="#ea4c89"/></svg>

<svg xmlns="http://www.w3.org/2000/svg" width="20" height="20" viewBox="0 0 20 20">
  <path fill="#EA4C89" d="M18.8175881,8.18784005 C18.6996222,7.60969641 18.5223092,7.04029045 18.292931,6.49636941 C18.0675578,5.96227827 17.7879349,5.448211 17.4631645,4.9676382 C17.1409428,4.49107016 16.771389,4.04326369 16.3643337,3.63659716 C15.9576426,3.22920248 15.5094449,2.85930705 15.0332121,2.53783297 C14.5526101,2.21199005 14.0377835,1.93347626 13.5043882,1.7073886 C12.9604342,1.47838838 12.3913579,1.30072207 11.8128151,1.18349143 C11.2204368,1.06189195 10.610218,1 10.0007274,1 C9.39050857,1 8.78101795,1.06189195 8.18791149,1.18349143 C7.60973281,1.30072207 7.04029235,1.47875245 6.49670245,1.7073886 C5.96330713,1.93347626 5.44848053,2.21235412 4.96715042,2.53783297 C4.49055351,2.85930705 4.0427199,3.22883841 3.63602873,3.63659716 C3.22897346,4.04326369 2.8597838,4.49143423 2.53792615,4.9676382 C2.21279167,5.448211 1.93353283,5.96227827 1.70815965,6.49636941 C1.47768918,7.04029045 1.30110439,7.60969641 1.18277437,8.18784005 C1.06153161,8.7794543 1,9.38963613 1,9.99945389 C1,10.6103639 1.06153161,11.2205457 1.18277437,11.812524 C1.30110439,12.3906677 1.47805328,12.9600736 1.70779556,13.5036306 C1.93316873,14.0369936 2.21279167,14.5525171 2.53756206,15.0330899 C2.85941971,15.509658 3.22860937,15.9567363 3.63566464,16.364131 C4.04235581,16.7707975 4.49055351,17.1399648 4.96678633,17.462167 C5.44811643,17.7872818 5.96294304,18.0665237 6.49633836,18.2918833 C7.03956417,18.5223398 7.60936872,18.6978216 8.18754739,18.8165086 C8.78065386,18.9388362 9.39014448,19 10.0003633,19 C10.6098539,19 11.2200727,18.9388362 11.812451,18.8165086 C12.3913579,18.6978216 12.9600701,18.5219757 13.5040241,18.2918833 C14.0374194,18.0665237 14.552246,17.7869177 15.032848,17.462167 C15.5094449,17.1399648 15.9572785,16.7711616 16.3639697,16.364131 C16.7706608,15.9567363 17.1405787,15.5092939 17.4628004,15.0330899 C17.7879349,14.5525171 18.0671937,14.0369936 18.2925669,13.5036306 C18.5223092,12.9604377 18.6992581,12.3906677 18.817224,11.812524 C18.9388309,11.2201816 19,10.6099998 19,9.99945389 C19.0003625,9.38963613 18.939195,8.7794543 18.8175881,8.18784005 Z M17.6838045,9.9233632 C17.5727563,9.89933456 14.9716804,9.33939443 12.3305544,9.67142655 C12.2766688,9.53999717 12.2216908,9.40747558 12.1648924,9.27458992 C12.0050559,8.89850529 11.8328402,8.5256973 11.6537067,8.15980664 C14.6895089,6.92123946 15.9219615,5.13911531 15.9361611,5.11799923 C17.0142386,6.42646791 17.666328,8.0990069 17.6838045,9.9233632 Z M15.0769031,4.23148804 C15.0576062,4.2613418 13.9631446,5.92732752 11.0620566,7.01480553 C9.74804727,4.60065533 8.30442104,2.68309702 8.18900376,2.53091564 C8.77009518,2.39002043 9.37594488,2.31392973 10.0003633,2.31392973 C11.9468011,2.31392973 13.7224795,3.03915778 15.0769031,4.23148804 Z M8.15914819,2.53710483 C8.15914819,2.53783297 8.15769182,2.53856111 8.15769182,2.53856111 C8.15769182,2.53856111 8.1493177,2.54074554 8.13511809,2.5436581 C8.14276403,2.54147368 8.15150225,2.54001739 8.15914819,2.53710483 Z M6.72061925,3.04825954 C6.82292921,3.18551405 8.2447099,5.11253818 9.5751034,7.47681074 C5.88429909,8.45725208 2.68137855,8.4190247 2.47821501,8.41538399 C2.97774973,6.03472826 4.57720749,4.06073906 6.72061925,3.04825954 Z M2.31400935,9.99945389 C2.31400935,9.91753808 2.31765027,9.83744261 2.32056301,9.756619 C2.45600537,9.75953156 6.25421693,9.84581623 10.2115369,8.66149552 C10.4318127,9.09255476 10.6426222,9.53053134 10.8352271,9.96814385 C10.7336453,9.99654133 10.6324276,10.0271232 10.5323022,10.0598896 C6.38419791,11.4003964 4.28010812,15.1328452 4.28010812,15.1328452 C4.28010812,15.1328452 4.28302086,15.1350296 4.28302086,15.1364859 C3.05930642,13.7744989 2.31400935,11.9741712 2.31400935,9.99945389 Z M10.0003633,17.6860703 C8.14021539,17.6860703 6.43407856,17.0249186 5.10441324,15.9246981 C5.20526683,16.0066139 5.27662893,16.0590401 5.27662893,16.0590401 C5.27662893,16.0590401 6.75011073,12.8457555 11.3081831,11.2576809 C11.3252954,11.2511276 11.3424077,11.2463947 11.3595201,11.2412977 C12.4412385,14.0515564 12.8876157,16.4052709 13.0015767,17.0769806 C12.0789666,17.4694484 11.0649694,17.6860703 10.0003633,17.6860703 Z M14.2955609,16.3750531 C14.2172811,15.9108635 13.8076772,13.6550838 12.7995054,10.8848729 C15.2804308,10.4880362 17.4311244,11.1684836 17.5895046,11.2205457 C17.2472577,13.3620072 16.0213587,15.2093 14.2955609,16.3750531 Z"/>
</svg>
